X: 77
T:Ivy Leaf
S:M.Bergin
Z:Christoph
M:C
L:1/8
K:D
A3 e cAec| Aece dBgB| A3 e cAec| AGEF GABd|
Ae (3eee ce (3eee| Aece dBgB| A3 e cAec | AGEF GABd ||
ea ~a2 eedBd| ~g3 e aBGB| ea ~a2 edBA| BGEF GABd|
ea ~a2 edBd| ~g3 e dBgB| A2 AB ~=c3 d| (3efg fa gedB ||
